src/favicons/favicon.svg

<svg width="100" height="100" viewBox="0 0 100 100" fill="none" xmlns="http://www.w3.org/2000/svg">
<rect width="100" height="100" fill="#272727"/>
<path d="M76.0156 66.64H96.0156V70.32H76.0156V66.64Z" fill="white"/>
<path d="M10.16 46.52C11.1467 46.52 11.9867 46.72 12.68 47.12C13.3733 47.52 14.16 48.1067 15.04 48.88C15.7067 49.4667 16.24 49.8933 16.64 50.16C17.04 50.4 17.48 50.52 17.96 50.52C18.7067 50.52 19.3867 50.24 20 49.68C20.6133 49.12 21.2 48.3067 21.76 47.24L24.6 48.6C23.7467 50.3333 22.8 51.6933 21.76 52.68C20.7467 53.6667 19.44 54.16 17.84 54.16C16.9067 54.16 16.0933 53.96 15.4 53.56C14.7067 53.16 13.9333 52.5867 13.08 51.84C12.44 51.28 11.8933 50.8667 11.44 50.6C11.0133 50.3067 10.5467 50.16 10.04 50.16C9.26667 50.16 8.58667 50.44 8 51C7.41333 51.56 6.82667 52.3733 6.24 53.44L3.4 52.08C4.25333 50.3733 5.18667 49.0267 6.2 48.04C7.24 47.0267 8.56 46.52 10.16 46.52Z" fill="#FF652F"/>
<path d="M27.7444 65.64L44.7044 30.52L48.2244 32.16L31.3044 67.24L27.7444 65.64Z" fill="#FF652F"/>
<path d="M64.4488 63L62.0488 48L59.4887 63H54.0087L50.4488 41.88H54.7688L56.9688 60.2L59.9288 44.56H64.4088L67.1288 60.2L69.3287 41.88H73.4888L70.0488 63H64.4488Z" fill="#FF652F"/>
</svg>

<svg viewBox="0 0 100 100" fill="none" xmlns="http://www.w3.org/2000/svg"><path fill="#272727" d="M0 0h100v100H0z"/><path d="M76.016 66.64h20v3.68h-20v-3.68Z" fill="#fff"/><path d="M10.16 46.52c.987 0 1.827.2 2.52.6.693.4 1.48.987 2.36 1.76.667.587 1.2 1.013 1.6 1.28.4.24.84.36 1.32.36.747 0 1.427-.28 2.04-.84.613-.56 1.2-1.373 1.76-2.44l2.84 1.36c-.853 1.733-1.8 3.093-2.84 4.08-1.013.987-2.32 1.48-3.92 1.48-.933 0-1.747-.2-2.44-.6-.693-.4-1.467-.973-2.32-1.72-.64-.56-1.187-.973-1.64-1.24a2.42 2.42 0 0 0-1.4-.44c-.773 0-1.453.28-2.04.84-.587.56-1.173 1.373-1.76 2.44L3.4 52.08c.853-1.707 1.787-3.053 2.8-4.04 1.04-1.013 2.36-1.52 3.96-1.52Zm17.584 19.12 16.96-35.12 3.52 1.64-16.92 35.08-3.56-1.6ZM64.449 63l-2.4-15-2.56 15h-5.48l-3.56-21.12h4.32l2.2 18.32 2.96-15.64h4.48l2.72 15.64 2.2-18.32h4.16L70.049 63h-5.6Z" fill="#FF652F"/></svg>
